**kern	**kern	**dynam
*part1	*part1	*part1
*staff2	*staff1	*
*I"Piano	*	*
*clefF4	*clefG2	*
*k[b-e-a-]	*k[b-e-a-]	*
=1	=1	=1
8BB-L	8r	p
8B-	8gL 8ee-	.
8B-	8g 8ee-	.
8B-J	8gJ 8ee-	.
=	=	=
8BB-L	8r	.
8B-	8fL 8a- 8dd	.
8B-	8f 8a- 8dd	.
8B-J	8fJ 8a- 8dd	.
=	=	=
4E-	16ee-LL	f
.	16gg	.
.	16ee-	.
.	16b-JJ	.
4r	16gLL	.
.	16e-	.
.	16B-	.
.	16GJJ	.
=	=	=
!	!	!LO:DY:a
2BB- 2F	(2A- 2d	sf
=	=	=
16r	8G) 8e-	.
16E-LL	.	.
16G	8r	.
16B-JJ	.	.
8e-	16gLL	.
.	16b-	.
8r	16ee-	.
.	16ggJJ	.
=	=	=
!	!	!LO:DY:a
!	!	!LO:DY:a
(2B-> 2f>	((2dd 2aa-	sf sf
=	=	=
8e->) 8g>	8ee-)) 8gg	.
8r	8r	.
8EE- 8E-	8G 8e-	.
8r	8r	.
=	=	=
4EE- 4E-	4G 4e-	.
8r	8r	.
==	==	==
*-	*-	*-
!!!system-decoration: {(s1,s2)}
!!!RDF**kern: > = above
